X: 3029
M: 3/4
L: 1/8
K: G
z2 |\
ed ef ef | d2 B2 B2 | Bc dc BA | G4 :: G2 |\
e2 de dc | B2 GA B2 | cB AB A^F | HG4 |]


